src/static/logos/webtorrent.svg

<?xml version="1.0" encoding="UTF-8" standalone="no"?>
<svg width="256px" height="295px" viewBox="0 0 256 295" version="1.1" xmlns="http://www.w3.org/2000/svg" xmlns:xlink="http://www.w3.org/1999/xlink" preserveAspectRatio="xMidYMid">
	<g>
		<path d="M125.331226,293.510178 C122.21309,291.852247 3.85574781,223.473253 2.69818031,222.660964 C0.234699117,220.932291 0.400625978,226.365368 0.400625978,147.43036 C0.400625978,68.495368 0.234689502,73.9287777 2.69818031,72.1994757 C3.30745189,71.7717834 31.3673074,55.5119334 65.053414,36.0664763 C107.320368,11.6676856 126.750387,0.657982017 127.75138,0.539697678 C129.562297,0.325706717 123.320536,-3.17111879 195.080946,38.2597809 C237.461421,62.7281648 254.307259,72.6512776 254.931254,73.514867 L255.799687,74.7167449 L255.799687,147.43036 L255.799687,220.143975 L254.93139,221.345853 C254.307411,222.20955 237.466413,232.129566 195.079588,256.600939 C128.019366,295.317113 129.558399,294.446553 128.159826,294.454313 C127.586698,294.457518 126.313825,294.03263 125.331226,293.510178 L125.331226,293.510178 Z" fill="#EB324B"></path>
		<path d="M126.397496,275.238148 C125.956808,275.05019 101.445328,260.937663 71.9275388,243.876978 C37.575708,224.022311 17.9649811,212.463959 17.4424074,211.764025 C16.6289852,210.674535 16.6259781,210.437573 16.6259781,147.43036 C16.6259781,84.3828923 16.628462,84.186874 17.443999,83.0945633 C17.9687149,82.3917611 37.5046049,70.8778707 71.9291333,50.9826003 C101.446045,33.9236281 126.045073,19.7886734 126.593639,19.5715886 C127.142208,19.3545042 128.146681,19.2811296 128.825806,19.4085338 C129.793314,19.590039 233.310404,79.0130098 237.630846,81.8670012 C238.21451,82.2525556 238.878163,83.0549974 239.105631,83.6502034 C239.381638,84.3724159 239.561695,105.67795 239.646928,147.700089 L239.774648,210.667784 L238.935973,211.800246 C238.382809,212.547189 226.926589,219.374589 205.283391,231.855699 C124.24079,278.591018 129.420728,275.663476 127.873763,275.605277 C127.502507,275.591311 126.838185,275.426101 126.397496,275.238148 L126.397496,275.238148 Z M129.166298,205.589926 C130.275091,203.445764 134.470402,198.102952 137.842407,194.540734 C139.700446,192.577887 146.80939,185.981616 153.640063,179.882362 C169.403942,165.806449 174.498254,160.497209 179.781032,152.638498 C186.556318,142.559525 189.784214,130.536183 188.277932,120.989045 C186.627938,110.531045 180.259908,101.820478 170.86698,97.1733173 C166.816459,95.1693181 163.884277,94.4813471 158.447574,94.2593763 C154.454179,94.0963375 153.029477,94.2079639 150.034429,94.9185582 C141.355424,96.9777117 133.826788,102.670871 129.730636,110.2723 C129.047905,111.53928 128.337179,112.5759 128.151244,112.5759 C127.96531,112.5759 127.365881,111.693189 126.819179,110.614323 C125.390258,107.794489 121.372529,102.950071 118.903358,101.069749 C111.977966,95.7959251 106.018822,93.8890577 97.5994311,94.2526938 C92.1515708,94.4879895 88.8509897,95.3338231 84.4856608,97.6133408 C77.016975,101.513391 70.9123045,109.128617 68.6371896,117.383412 C67.7444106,120.622669 67.6443263,130.723303 68.46847,134.410016 C70.3889307,143.000931 74.8278585,151.456078 81.7191061,159.649452 C85.5892412,164.250858 92.9344341,171.344522 103.962441,181.131085 C117.516231,193.159099 122.395194,198.235936 126.365903,204.44315 C127.168028,205.69707 127.994419,206.723005 128.202336,206.723005 C128.410249,206.723005 128.844035,206.21312 129.166298,205.589926 L129.166298,205.589926 Z" fill="#333943"></path>
		<path d="M151.605211,228.561527 C139.283378,217.404851 129.142301,208.010548 129.069487,207.685296 C128.923174,207.031747 130.742361,204.002686 133.136217,200.913928 C136.79213,196.196761 141.548838,191.49669 153.236648,181.052823 C172.73878,163.626318 178.107253,157.681417 183.599025,147.43036 C187.332271,140.461812 189.099913,133.447772 189.08954,125.643923 C189.081688,119.730291 188.3215,116.380717 185.81357,111.209024 C185.181875,109.906385 184.715398,108.720748 184.776962,108.574283 C184.889574,108.306357 237.163528,156.704619 238.472613,158.288834 C239.124139,159.077294 239.173561,160.939816 239.171602,184.632801 C239.169598,208.183475 239.116171,210.214604 238.470506,211.259393 C237.95851,212.087871 229.41178,217.219373 206.522692,230.441016 C189.335837,240.368824 174.989169,248.571409 174.641205,248.668981 C174.231385,248.783905 166.117447,241.701483 151.605211,228.561527 L151.605211,228.561527 Z" fill="#252A32"></path>
	</g>
</svg>

<svg width="256" height="295" xmlns="http://www.w3.org/2000/svg" preserveAspectRatio="xMidYMid"><path d="M125.331 293.51c-3.118-1.658-121.475-70.037-122.633-70.849-2.463-1.729-2.297 3.704-2.297-75.23 0-78.936-.166-73.502 2.297-75.232.61-.427 28.67-16.687 62.355-36.133C107.32 11.668 126.75.658 127.751.54c1.811-.214-4.43-3.711 67.33 37.72 42.38 24.468 59.226 34.391 59.85 35.255l.869 1.202v145.427l-.869 1.202c-.624.864-17.465 10.784-59.851 35.255-67.06 38.716-65.522 37.846-66.92 37.853-.573.004-1.846-.421-2.829-.944z" fill="#EB324B"/><path d="M126.397 275.238c-.44-.188-24.952-14.3-54.47-31.361-34.351-19.855-53.962-31.413-54.485-32.113-.813-1.09-.816-1.326-.816-64.334 0-63.047.002-63.243.818-64.335.525-.703 20.06-12.217 54.485-32.112 29.517-17.06 54.116-31.194 54.665-31.411.548-.217 1.553-.29 2.232-.163.967.181 104.484 59.604 108.805 62.458.584.386 1.247 1.188 1.475 1.783.276.722.456 22.028.54 64.05l.129 62.968-.839 1.132c-.553.747-12.01 7.575-33.653 20.056-81.042 46.735-75.862 43.807-77.41 43.75-.37-.015-1.035-.18-1.476-.368zm2.77-69.648c1.108-2.144 5.303-7.487 8.675-11.05 1.858-1.962 8.967-8.558 15.798-14.658 15.764-14.076 20.858-19.385 26.141-27.244 6.775-10.078 10.003-22.102 8.497-31.649-1.65-10.458-8.018-19.169-17.411-23.816-4.05-2.004-6.983-2.692-12.42-2.914-3.993-.163-5.418-.051-8.413.66-8.679 2.059-16.207 7.752-20.303 15.353-.683 1.267-1.394 2.304-1.58 2.304-.186 0-.785-.883-1.332-1.962-1.429-2.82-5.446-7.664-7.916-9.544-6.925-5.274-12.884-7.18-21.304-6.817-5.447.235-8.748 1.08-13.113 3.36-7.469 3.9-13.574 11.516-15.849 19.77-.893 3.24-.993 13.34-.169 17.027 1.92 8.59 6.36 17.046 13.251 25.24 3.87 4.6 11.215 11.695 22.243 21.481 13.554 12.028 18.433 17.105 22.404 23.312.802 1.254 1.628 2.28 1.836 2.28.208 0 .642-.51.964-1.133z" fill="#333943"/><path d="M151.605 228.562c-12.322-11.157-22.463-20.551-22.536-20.877-.146-.653 1.673-3.682 4.067-6.771 3.656-4.717 8.413-9.417 20.1-19.861 19.503-17.427 24.871-23.372 30.363-33.623 3.733-6.968 5.5-13.982 5.49-21.786-.007-5.914-.768-9.263-3.275-14.435-.632-1.303-1.099-2.488-1.037-2.635.113-.268 52.387 48.13 53.696 49.715.651.788.7 2.65.699 26.344-.002 23.55-.056 25.582-.701 26.626-.512.829-9.06 5.96-31.948 19.182-17.187 9.928-31.534 18.13-31.882 18.228-.41.115-8.524-6.968-23.036-20.107z" fill="#252A32"/></svg>
